X:1
T:- # -
%%score [ 1 2 3 4 ]
L:1/8
M:4/4
K:F
V:1 treble nm="Sopran" snm=" "
V:2 treble nm="Alt"
V:3 treble-8 nm="Tenor"
V:4 bass nm="Baß"
V:1
"^Christobal de Morales" z8 | z8 | c6 A2 |"^II.  Clementissime" B2 c2 d2 f2- | f2 ed e2 c2 | %5
w: ||Cle- men-|tis- si- me *||
 d2 cB A3"^1546" G | AB c3 B B2- | B2 A2 B4 | z2 c2 c2 F2 |"^10" G2 B2 AGAB | c3 B/A/ G2 A2 | %11
w: |||Chri- sti con-|fes- sor do * * *||
 F3 G A2 GF | G2 A2 B3 A | F2 G2 A4- |"^15" A4 z2 G2 | G2 C2 c3 B | G2 A2 B4- | B4 A4 | %18
w: ||* mi- ni,|* Chri-|sti con- fes *||* sor|
 F2 G3 F F2 |"^20" EDEF G2 A2 | Bc d4 cB | A8 | z4 z2 c2 | c2 F2 B3 B |"^25" A2 F2 A4 | z2 G4 F2 | %26
w: do * * *||* * * mi *|~ni,|Chri-|sti con- fes- sor|do- mi- ni,|be- a-|
 E2 D2 C4 | c6 B2 | A2 G2 F4- |"^30" F4 F4 | G8 | A8 | F3 G A2 B2 | c2 d3 c c2- |"^35" c2 =B2 c4 | %35
w: tis- si~- ~me,|be- a-|\-tis- si- me|* Ae-|gi-|~di,|te sup- pli- ci-|ter pe- * *|* ti- mus,|
 z4 z2 F2- | F2 G2 A2 B2 | c3 B GA B2- | BA F2 G4 |"^40" A4 z4 | z8 | z2 G2 c4- | c2 B2 c2 e2 | %43
w: te|* sup- pli- ci-|ter * * * pe-|* * * ti-|~\-mus,||ne nos|* de- re- lin|
 dc c4 =B2 |"^45" c2 A2 BAGF | G4 z2 F2 | B3 A B2 c2 | d2 f4 e2 | dc c4 =B2 |"^50" c4 F4 | G4 A4 | %51
w: ||\-quas, sed|a- pud do *|||* mi-|* num|
 z4 z2 c2- | c2 f2 d2 e2 | c4 d4 |"^55" z8 | z4 z2 c2 | f2 d2 e4 | c2 d3 c c2- | cB B2 c4 | %59
w: tu|* sem- per pro|no- ~bis,||tu|sem- per no-||* * * bis,|
"^60" z4 z2 c2 | f2 d2 e3 d | c2 d3 c c2- | c2 =B2 c4 | z4 c4- |"^65" c4 F4 | B8 | A4 A4 | G8 | %68
w: tu|sem- per ~pro *|* no- * *|* * bis|in-|* ter-|ces-|sor as-|si-|
 G8 |[M:4/4]"^Secunda pars" z8 | z4 c4- | c2 c2 B2 A2 | c3 d e2 d2- | d2 cB A2 c2 | %74
w: ~stas.||Sanc-|* te pa- ter|Ae- gi- * *||
"^75" BABc d2 c2- | c2 B2 A2 GF | G2 E2 F2 A2 | G3 A Bc d2- | dc A2 B2 G2 |"^80" A4 z2 f2- | %80
w: |||||di, sanc-|
 f2 f2 e2 d2 | f3 e c2 d2- | dcdB c2 B2- | BAFG ABcA |"^85" B4 A2 f2 | f2 e2 d2 f2- | f2 ed e4 | %87
w: * te pa- ter|Ae- * ge *|||* di, sanc-|\-te pa- ter Ae-|* gi * di,|
 z4 f4- | f4 e4 |"^90" d4 d4 | c3 B c2 d2- | dcBA B4 | A4 c4 | d2 e2 c2 f2- |"^95" f2 ed e2 d2- | %95
w: vas|* spi-|ri- tus|sanc * * *||\-ti, gem-|ma con- fes- so||
 dc c4 =B2 | c2 A2 B3 A | GF F4 E2 | F2 c4 d2 |"^100" e2 c2 f4- | f2 ed e2 d2- | dc c4 =B2 | %102
w: |||\-rum, gem- ma|con- fes- so-|||
 c4 z4 | z2 c4 B2 |"^105" c3 d e2 d2- | dc c4 =B2 | c4 z2 c2- | c2 c2 B2 A2 | B2 G3 ABG | %109
w: rum,|de- cus|mo- na- cho- *||rum, de-|* cus mo- na-|\-cho * * * *|
"^110" A2 G3 F F2- | F2 G2 E2 F2- | F2 E2 F4 | z8 | z8 |"^115" z2 B2 B2 G2 | B3 c de d2- | %116
w: ||* * rum,|||cum pi- e-|ta * * * *|
 dcBA d2 cB | A8 | z8 |"^120" z2 G4 A2 | B2 c2 d4- | d2 c2 d2 cB | A2 B3 A A2- | A2 G2 A2 F2- | %124
w: |te||sup- pli-|can- ti- um|* sem * * *||* * per, sup-|
"^125" F2 G2 A2 B2 | c4 d2 f2- | f2 e2 f2 ed | c2 d3 c c2- | c2 =B2 c4 |"^130" z4 c4- | c2 c2 c4 | %131
w: * pli- can- ti-|\-um sem *|||* * per|me-|* mor e-|
 F4 B4- | B4 A4 | G8 |"^135" A4 F2 G2- | GF F4 E2 | F8 |] %137
w: \-sto no|||||~stri.|
V:2
 C6 A,2 | B,2 C2 D2 F2- | F2 ED E2 F2 | G2 FE D2 A2- | A2 GF G2 F2- | F2 E2 F2 D2 | C4 F3 F | %7
w: Cle- men-|tis- si- me *|||||* cle- men-|
w: |||||||
 G2 FE D3 E | FG A3 G F2- | F2 E2 F4 | z2 G2 G2 C2 | D2 F4 ED | E2 F2 D3 C | D2 E2 F4- | F4 D4 | %15
w: tis- si * me *|||Chri- sti con-|\-fes * * *|* sor do- *|* * mi-|* ~ni,|
w: ||||||||
 z2 G2 G2 C2 | E2 F2 D3 C | D2 E2 F3 E | D2 C2 D2 B,2 | C3 D E2 F2 | D3 C B,2 C2 | z2 c2 c2 F2 | %22
w: Chri- sti con-|fes- sor do *||||* * mi- ~ni,|Chri- sti con-|
w: |||||||
 G3 F E2 F2 | E2 DC D2 E2 | F8 | D4 G4- | G2 F2 E2 D2 | C4 z4 | F6 E2 | D2 D2 C2 F2- | %30
w: \-fes * * sor|do * * * *|mi-|~ni, be-|* a- tis- si-|~me,|be- a-|tis- si- me Ae-|
w: ||||||||
 F2 ED E2 D2 | F4 z2 C2- | C2 D2 E2 F2 | G2 A4 G2 | A2 GF E4 | z4 C3 C | D2 E2 F4- | F2 CD EF G2- | %38
w: * * * gi- *|di, te|* sup- pli- ci-|ter pe- ti-|\-mus * * *|te sup-|pli- ci- ter|* pe- * * * *|
w: ||||||||
 GF F4 E2 | F4 z2 C2 | G6 F2 | G2 B4 A2 | G2 F2 G4 | FEDC D4 | C4 D2 F2- | FE E2 F2 A2 | G4 z2 C2 | %47
w: * * * ti-|\-mus, ne|nos de-|re- lin- *||* * * * quas,|ne nos de-|* * * re- lin-|quas, sed|
w: |||||||||
 F3 E F2 G2 | FEDC D4 | z2 C2 D3 C | D2 E2 C4 | D4 z4 | F4 B2 G2 | A4 F4 | G2 C2 z2 F2 | %55
w: a- pud do- mi-|~~num, * * * *|sed a- pud|do- mi- num||tu sem- per|pro no-|* ~bis, tu|
w: ||||||||
 B2 G2 (A3 G) | (F2 G3) FGE | A4 G2 A2 | F2 G2 z2 C2 | F2 D2 E2 C2- | CB, B,2 C2 G2 | A2 F2 G2 A2 | %62
w: sem- per pro *|* no- * * *||* bis tu|sem- per pro no-|* * * bis, tu|sem- per pro *|
w: |||||||
 F4 G4- | G4 G4 | A4 B3 A | GF F4 E2 | F6 F2 | E2 DC D4 | E8 |[M:4/4] z8 | z8 | z8 | z4 G4- | %73
w: no- bis|* in-|ter- ces- *||sor as-|si- * * *|~stas.||||Sanc-|
w: |||||||||||
 G2 G2 F2 E2 | G8 | F6 ED | EF G3 F F2- | F2 E2 F2 D2- | D2 C4 B,2 | C2 c3 BAG | A2 F2 G2 B2- | %81
w: * te pa- ter|Ae-|\-gi- * *||||~di, Ae- * * *||
w: ||||||||
 B2 AG A2 D2 | F4 z4 | z2 F4 F2 | E2 D2 F3 E | D2 C3 B, B,2 | C8 | z4 A4- | A4 G4 | F8 | F8 | %91
w: * * * * gi-|di,|sanc- te|pa- ter Ae- *|\-gi * * *|di,|~vas|* spi-|ri-|tus|
w: ||||||||||
 D6 E2 | F4 z2 F2- | F2 G2 A2 F2 | BAGF G2 F2 | G2 A4 GF | E2 F2 z2 F2 | G2 A2 F2 B2- | %98
w: sanc- *|\-ti, gem-|* ma con- fes-|so * * * * *||* rum, gem-|ma con- fes- so-|
w: |||||||
 B2 AG A2 G2- | G2 FE D2 A2- | A2 GF G2 F2 | G2 E2 D4 | C4 z2 F2- | F2 E2 F2 G2 | A4 G2 D2 | %105
w: ||||~rum, de-|* cus mo- na-|cho- * *|
w: |||||||
 A4 z2 G2- | G2 G2 F2 E2 | F4 D2 F2 | G3 F E2 D2 | F2 E2 z2 D2- | D2 D2 C2 B,2 | C3 B, CB,A,G, | %112
w: ~rum, de-|* cus mo- na-|cho- * *|||||
w: |||||||
 A,4 z2 F2 | F2 D2 F4 | G3 F D2 E2 | D2 G4 FE | F2 G2 D2 E2 | F3 E FG A2- | A2 GF E2 F2 | %119
w: * cum|pi- e- ta-|* * te qua|red- un- * *|* * das, qua|red- un * * *||
w: ~rum, *|||||||
 D4 z2 C2 | D2 E2 F2 G2- | GD F4 E2 | F6 E2 | F2 ED C4 | C2 D3 C F2- | F2 E2 F4 | G4 F2 G2 | %127
w: \-das, sup-|* pli- can- ti-|* um sem- *||||||
w: ||||||||
 A4 G2 A2 | F4 G4 | z2 G4 G2 | G4 A4 | B3 A GF F2- | F2 E2 F4 | E2 DC D2 E2 | F3 E D2 C2 | %135
w: |* per|me- mor|e- sto|no- * * * *||||
w: ||||||||
 D2 B,2 C4- | C8 |] %137
w: * * stri.||
w: ||
V:3
 z8 | z8 | z8 | z8 | c6 A2 | B2 c2 d2 f2- | fe c2 d4 | c4 B2 d2- | d2 cB c2 d2 | B4 c2 FG | %10
w: ||||Cle- men-|tis- si- me *|||||
 AB c3 G c2- | c2 =B2 c4 | z4 z2 f2 | f2 B2 c2 d2- | dc c4 =B2 | c8 | z4 z2 f2 | f2 B2 c3 B | %18
w: ||Chri-|sti con- fes- sor|* * do- mi-|ni,|Chri-|\-sti con- fes *|
 A2 GA BAGF | G2 c2 c2 F2 | GABc d2 e2 | f3 e c2 d2 | e4 c4 | z2 f2 f2 B2 | c2 d3 c c2- | %25
w: |sor, Chri- sti con-|fes * * * * *||* sor,|Chri- sti con-|fes- sor * do-|
 c2 B2 c4 | g6 f2 | e2 d2 c4- | c4 d4- | d2 B2 c2 F2 | B8 | c4 F3 G | A2 B2 c2 d2 | c2 f4 e2 | %34
w: * mi- ni,|be- a-|tis- si- ~me,|* Ae-||gi-|di, te *|* sup- pli- ci-|ter pe- ti-|
 d4 z2 c2- | c2 d2 e2 f2 | B4 c2 d2 | A3 B c2 GA | Bc d2 c4 | z2 F2 c3 d | e2 d2 e2 c2 | d3 e f4 | %42
w: \-mus, te|* sup- pli- ci-|ter pe- ti-|mus * * * *||ne nos *|* de- re- lin||
 e2 d2 c4 | z8 | z2 F2 B3 A | B2 c2 d4 | _e8 | d6 cB | A4 z4 | z2 F2 B3 A | B2 c3 A c2- | %51
w: * * quas,||sed a- pud|do * *|mi-||~num,|sed a- pud|do * * *|
 c2 =B2 c4 | z4 z2 c2- | c2 f4 d2 | e2 f3 edc | d2 e2 f4 | z4 z2 c2 | f2 d2 e2 f2 | d4 c2 A2 | %59
w: * mi- num|tu|* sem- per|pro no- * * *|* * bis,|tu|sem- per pro no||
 A2 B2 c3 B | A2 F2 z2 c2 | f2 d2 e2 f2 | d4 c4 | e4 e4 | f3 e dc d2- | d2 c2 B4 | c3 B c2 d2- | %67
w: |* bis, tu|sem- per pro no-|* bis|in- ter-|ces * * * *|* * sor|as * * *|
 dc c4 =B2 | c8 |[M:4/4] c6 c2 | B2 A2 c3 d | e2 f2 g2 f2- | f2 ed c2 G2 | B2 c2 d2 c2 | %74
w: * * * si-|~stas.|Sanc- te|pa- ter Ae *||||
 _e3 d/c/ B2 c2 | d4 c4 | z8 | z4 z2 f2- | f2 f2 e2 d2 | f3 e c2 d2- | d2 d2 c2 B2 | d3 e f4 | %82
w: |\-gi- di,||sanc-|* te pa *|* * ter, sanc-|* te pa *|* * ter,|
 z2 f2 f2 g2 | f2 d3 c c2- | c2 B2 c2 F2 | B2 G3 F F2 | G8 | c6 c2 | c4 c4 | A4 B4- | B2 AG A4 | %91
w: sanc- te pa-|ter Ae- * *|* gi- di, Ae-|\-gi * * *|di,|vas spi-|ri- tus|sanc *||
 B8 | c8 | z8 | z2 c4 d2 | e2 c2 f2 d2- | dc c2 d4- | d2 c2 d2 B2 | c4 z2 B2 | c2 A2 B2 AG | %100
w: |\-ti,||gem- ma|con- fes- so *|||\-rum, gem-|* ma con- fes *|
 F2 c3 B A2 | G4 z2 G2- | G2 A2 B2 A2 | c3 B A2 G2 | F4 z2 f2- | f2 f2 e2 d2 | e4 c4- | c4 z2 d2- | %108
w: so- * * *|rum, gem-|* ma con- fes-|\-so * * *|rum, de-|* cus mo- na-|cho- ~~rum,|* de-|
 d2 d2 c2 B2 | c4 A4 | B3 A G2 F2 | G4 F4 | z2 f2 f2 d2 | f3 e d2 c2- | c2 BA B2 c2 | d4 z2 B2 | %116
w: * cus mo- na-|cho- *||* rum,|cum pi- e-|ta * * *||te, cum|
 B2 G2 B2 c2 | d2 cB c2 f2- | fe d3 c c2- | c2 =B2 c4 | z4 z2 G2- | G2 A2 B2 c2 | d6 c2 | B4 A3 B | %124
w: pi- e- ta- te|qua * * * red-|* * un- * *|* * das|sup-|* pli- can- ti-|um *|sem- * *|
 c2 B2 A2 F2 | G4 z2 B2- | B2 c2 d2 e2 | f2 d2 e2 f2 | d4 c4 | e6 e2 | e4 f3 e | dc d4 c2 | %132
w: |\-per, sup-|* pli- can- ti-|um sem * *|* per|me- mor|e- * *|* * * sto|
 B4 c2 d2- | dc c4 B2 | c3 B A2 GA | BAGF G4 | F8 |] %137
w: no * *||||~stri.|
V:4
 z8 | z8 | z8 | z8 | z8 | z8 | F,6 D,2 | E,2 F,2 G,2 B,2- | B,2 A,G, A,2 B,2 | G,4 F,4- | %10
w: ||||||Cle- men-|tis- si- me *|||
 F,2 E,D, E,2 F,2 | D,4 C,2 C2 | C2 F,2 G,2 B,2- | B,A, G,2 F,2 D,2 | F,4 G,4 | C,4 z2 C2 | %16
w: |* * Chri-|sti con- fes *|* * * * sor|do- mi-|~ni, Chri-|
 C2 F,2 G,2 B,2- | B,A, G,2 F,4- | F,2 E,2 D,4 | %19
w: sti con- fes *|* * sor do-|* * mi-|
 C,4"^© Michael Wendel 2005\nThis edition may be freely duplicated, distributed, performed or recorded for non-profit performance or use.\n" z4 | %20
w: ~ni,|
 z2 G,2 G,2 C,2 | D,E, F,3 E, D,2 | C,2 C2 C2 F,2 | A,2 B,3 A, G,2 | F,2 D,2 F,4 | G,4 C,4- | %26
w: Chri- sti con-|fes * * * *|\-sor, Chri- sti con-|fes * * *|* sor~ do-|mi- ni,|
 C,4 C4- | C2 B,2 A,2 G,2 | F,4 B,4- | B,4 A,4 | G,8 | F,8 | z8 | z2 D,4 E,2 | F,2 G,2 A,3 B, | %35
w: * be-|* a- tis- si-|\-me Ae-||gi-|di,||te sup-|\-pli- ci- ter *|
 C2 B,2 C2 A,2 | B,2 G,2 F,2 B,,2 | F,4 z4 | z4 z2 C,2 | F,3 G, A,B, C2- | C2 B,2 C2 A,2 | %41
w: * pe- * ti-|mus, * * *||ne|nos * * * *|* de- re- lin-|
 G,4 F,4 | z4 z2 C,2 | F,3 E, F,2 G,2 | A,4 z4 | z8 | z8 | z4 z2 C,2 | F,3 E, F,2 G,2 | A,4 z4 | %50
w: * quas,|sed|a- pud do- mi-|num,|||sed|a- pud do- mi-|num,|
 z2 C,2 F,3 E, | F,2 G,2 A,4 | z8 | F,4 B,4 | G,2 A,2 B,3 A, | G,4 F,4 | z8 | z4 z2 F,2 | %58
w: sed a- pud|do- mi- num,||tu sem-|per pro no- *|* bis,||tu|
 B,2 G,2 A,3 G, | F,2 G,2 C,4 | D,4 C,4 | z8 | z8 | C8 | F,4 B,4- | B,2 A,2 G,4 | F,8 | G,8 | C,8 | %69
w: sem- per pro *|* * no-|* bis|||in-|ter- ces-|* sor as-|si-||~stas.|
[M:4/4] z8 | z8 | z8 | z8 | z8 | z8 | z4 z2 C2- | C2 C2 B,2 A,2 | C4 B,3 A, | B,2 F,2 G,4 | F,8 | %80
w: ||||||Sanc-|* te pa- ter|Ae- gi- *||di,|
 z8 | z4 z2 B,2- | B,2 B,2 A,2 G,2 | B,3 A, F,G,A,F, | G,4 F,E,D,C, | B,,2 C,2 D,4 | C,8 | %87
w: |sanc-|* te pa- ter|Ae- * * * * *||* * gi-|di,|
 z4 F,4- | F,4 C,4 | D,4 B,,4 | F,6 D,2 | G,8 | F,8 | z8 | z8 | z2 F,4 G,2 | A,2 F,2 B,4- | %97
w: vas|* spi-|ri- tus|sanc- *||\-ti,|||gem- ma|con- fes- so-|
 B,2 A,2 B,2 G,2 | F,4 z4 | z8 | z2 C,4 D,2 | E,2 C,2 G,3 F, | E,2 F,2 D,4 | C,4 z4 | z2 C4 B,2 | %105
w: |\-rum,||gem- ma|con- fes- so *||\-rum,|de- cus|
 A,2 F,2 G,4 | C,2 C2 F,2 A,2- | A,G,A,F, G,2 D,2 | G,4 C,2 G,2 | F,2 C,2 D,4 | B,,4 C,2 D,2 | %111
w: mo- na- cho-|rum, de- cus mo-|* * * * * na-|\-cho- rum, de-|cus mo- *|na- cho *|
 C,4 z2 F,2 | F,2 D,2 F,3 G, | A,2 B,4 A,2 | G,6 C,2 | G,4 z4 | z8 | z2 F,2 F,2 D,2 | %118
w: rum, cum|pi- e- ta- *|te qua red-|\-un- *|das,||cum pi- e-|
 F,2 G,2 A,2 F,2 | G,4 C,4 | z8 | z8 | z2 B,,4 C,2 | D,2 E,2 F,3 G, | A,2 G,2 F,2 D,2 | C,4 B,,4 | %126
w: ta- te qua red-|\-un- das|||sup- pli-|can- ti- um *|* sem * *|* per|
 z8 | z8 | z8 | C6 C2 | C4 F,4 | B,6 A,2 | G,4 F,4 | G,8 | F,6 E,2 | D,4 C,4 | F,8 |] %137
w: |||me- mor|e- sto|no- *|||||~stri.|

